X:1
T:De toutes Flours
T:De toutes Flours
T:Guillaume de Machaut
C:Guillaume de Machaut
%%score [ 1 2 3 ]
L:1/8
Q:1/4=100
M:2/4
K:C
V:1 treble nm="Duplum" snm="D"
V:2 treble-8 transpose=12 nm="Contra  Tenor" snm="CT"
V:3 treble-8 nm="Tenor" snm="T"
V:1
 G4- | G2 D2- | D2 E2- | E G2 E | FE DE | C3 A | AG G^F | G4 | A4- | A2 c_B | A2 c(_B | _B)(A A)G | %12
w: De||||||tou- * tes *|flours|n'a-||||
w: Gas-||||||tés * es- *|tois|li||||
 _BA BG | ^F3 A | E2 ^F2 | G2 z C | B,B, CC | D4- | D2 E2- | E2 F2- | F E2 D | D2 E^F | G2 _BA | %23
w: voit et de tous|fruis En|mon ver-|gier fors|u- ne seu- le|ro-||||||
w: sur- plus et des-|truis Par|For- tu-|ne qui|du- re- ment s'o-|po-||||||
 G2 c_B | A2 _B(A | A)G A(G | G)F EF | E2 D2- ||1 D2 ^F^G || A4- | A4 :|2 D2 ^F2 || G4- | G4 || %34
w: ||||||se|||se||
w: ||||||se|||se||
 A4- | A2 G2 | G^F GE | ^F3 F | G2 ^F2 | G4 | d c2 A | _BA BG | ^F3 G | ^F2 G2 | D4- | D2 A2 | %46
w: Con-|* tre|ces- te dou- ce|flour Pour|a- ma-|tir|sa * *|cou- lour et s'o-|dour. Mais|se cuei-|llir|* la|
w: ||||||||||||
 c_B AG | ^F2 ^G2 | A4 | _B4 | A4- | G4 | G^F GE | ^F2 ^G2 | A4 | ed cB | A2 G2 | ^F4- | F2 E^F | %59
w: voy * ou *|tres- bu-|chier,|Au-|tre|après|li * * *|* ja|mais|a- * * *||voir||
w: |||||||||||||
 G2 _BA | G2 c_B | A2 _B(A | A)G A(G | G)F EF | E2 D2- | D2 ^F2 | G4- | G4 |] %68
w: ||||||* ne|quier.||
w: |||||||||
V:2
 G2 FE | D2 G,2 | D^C B,C | D2 E2 | z B, B,2 | z G ^FE | D2 ^C2 | D4 | A,4 | G,4 | D2 (G,2 | %11
 G,)G, G,2 | z2 ED | ^CD E2 | E D2 ^C | D2 z2 | G,2 A,2 | B,4 | C2 C2 | D^C DB, | ^C4 | D4 | (G,4 | %23
 G,) D2 F | E2 GF | ED C_B,- | B, A,2 B,- | B,A, G,2- ||1 G,D ^C^D || E4- | E4 :|2 G, B,2 ^C || %32
 D4- | D4 || F4 | (D4 | D2) G,(G, | G,) ^C2 D | E D2 ^C | D4 | E4 | (F4 | F)F E(D | D) ^C2 D | E4 | %45
 FE FD | D^C DB, | ^C2 ^D2 | E4 | G4 | ED EC | D4 | G,4- | G,G, E,G, | z G EF | G2 FE | FE FD | %57
 ^C4 | ^C4 | D2 G,2- | G, D2 F | E2 GF | ED C_B,- | B, A,2 B,- | B,A, G,2- | G, B,2 ^C | D4- | %67
 D4 |] %68
V:3
 c4 | B4 | A4 | G4 | Bc d2 | e2 dc | B2 A2 | G4 | z2 ^f2 | g4 | z ^f2 g | d4 | _B c2 B | A4 | %14
 B2 A2 | G4 | g4 | ^f4 | e4 | d4 |"^--" A2 B2 | A4 | G3 d | G2 G2 | z (A A)d | G2 G2 | A3 d | %27
 ^c2 d2 ||1 G2 B2 || (A4 | A4) :|2 G2 A2 || G4- | G4 || F4 | G4 | d2 cB | A2 GA | B2 A2 | G4 | %40
 G3 c | _B4 | d2 cB | A2 G2 | G4 | F4 | G4 | A2 B2 | A4 | G4 | c4 | _B4 | d2 c2- | c2 B2 | A4 | %55
 G4 | F2 G2 | A4- | A4 | G3 d | G2 G2 | z (A A)d | G2 G2 | A3 d | ^c2 d2 | G2 A2 | G4- | G4 |] %68

